X:249
T:score50
L:1/8
Q:1/4=96
M:1/4
I:linebreak $
K:G
 (DG |[M:3/4] G4) (3(BAG | B4) (BA | G4) (E<D | D4) (DG |$ G4) (3(BAG | B4) (AB | d6-) | %8
[M:2/4] d4 |] %9
